X:1
T:Come Home, Father
M:6/8
L:1/8
K:Ab
 cc=B cc_B| AAF A2 F| EAA AGA| B3- B2 E| cc=B cc_B| AAF A2 F| EAA AGB|\
 A3- A2 E| BB=A B2 c| EEF _G2 G| F3/2 F/2 F F/2 B3/2 A| G3- G2 E| cc=B cc_B|\
 AAF A2 F| EAA AGB| A3- A2 E| B2 E c2 E| d3- d2F/2-E/2| EAc/2-E/2 EBB|\
 A3- A2 z| BBB BAB|c-A-d c2 c/2c/2| ccc =dcd| e3- e2 _d| cc=B cc_B|\
 AAF A2F/2-E/2| EAc/2-C/2 EBB| A3- A2||
